X:1
T: He's Dear to me tho' he's far frae me
C:
R:Strathspey
Q: 128
K:F
M:4/4
L:1/16
|:FG|A4 AGFG F4 G2A2|f3d c2A2 G4 F3G|A3B AGFG F4 G2A2|c3d f3e d4 c2FG|
A4 AGFG F4 G2A2|f3d c2A2 G4 F3G|A3B AGFG F4 G2A2|c3d f3e d4 c2A2|
B3A B3c d3c f3d|c4 B2A2 G4 F3G|A4 AGFG F4 G2A2|c2d2 f3e d4 c2A2|
B3A B2c2 d2c2 f2d2|c4 B2A2 G4 F3G|A3B AGFG F4 G2A2|c3d f3e d4c2:|
